src/oreo_spark_red_cursors/pointer.svg

<svg xmlns="http://www.w3.org/2000/svg" id="svg5958" width="32" height="32" version="1.1">
 <defs id="defs5960">
  <filter id="filter858" style="color-interpolation-filters:sRGB" width="1.126" height="1.115" x="-.06" y="-.06">
   <feGaussianBlur id="feGaussianBlur860" stdDeviation=".525"/>
  </filter>
  <filter id="filter826" style="color-interpolation-filters:sRGB" width="1.151" height="1.137" x="-.08" y="-.07">
   <feGaussianBlur id="feGaussianBlur828" stdDeviation=".63"/>
  </filter>
  <filter id="filter827" style="color-interpolation-filters:sRGB" width="1.201" height="1.184" x="-.1" y="-.09">
   <feGaussianBlur id="feGaussianBlur829" stdDeviation=".92"/>
  </filter>
 </defs>
 <path id="path824" style="display:inline;opacity:0.3;fill:#000000;fill-opacity:1;stroke:none;stroke-width:1.24600685;filter:url(#filter827)" d="m 13.994141,5.5 c -0.999257,0 -2,0.9322661 -2,2.796875 V 19.685547 C 5.7493997,13.470185 5,18.394531 5,18.394531 c 2.3905766,1.60643 4.3829617,4.904042 6.320312,7.5 C 12.751043,28.064911 15.206034,29.5 18,29.5 c 3.923808,0 7.181844,-2.827704 7.863281,-6.554688 l 0.01953,-0.01758 1.101563,-6.109375 c 0.261966,-2.519646 -2.695353,-3.166779 -3.566406,-0.841797 0.01127,-2.794043 -2.757087,-3.16423 -3.626953,-1.263671 0.108903,-2.308436 -2.889946,-3.001803 -3.798828,-1.042969 V 8.296875 C 15.992188,6.4322661 14.993397,5.5 13.994141,5.5 Z"/>
 <path id="path4236-1-58-5" style="display:inline;fill:#ff5555;fill-opacity:1;stroke:none;stroke-width:1.24600685" d="M 13.994141 4 C 12.994884 4 11.994141 4.9322661 11.994141 6.796875 L 11.994141 18.185547 C 5.7493997 11.970185 5 16.894531 5 16.894531 C 7.3905766 18.500961 9.3829617 21.798573 11.320312 24.394531 C 12.751043 26.564911 15.206034 28 18 28 C 21.923808 28 25.181844 25.172296 25.863281 21.445312 L 25.882812 21.427734 L 26.984375 15.318359 C 27.246341 12.798713 24.289022 12.15158 23.417969 14.476562 C 23.429239 11.682519 20.660882 11.312332 19.791016 13.212891 C 19.899919 10.904455 16.90107 10.211088 15.992188 12.169922 L 15.992188 6.796875 C 15.992188 4.9322661 14.993397 4 13.994141 4 z"/>
</svg>

<svg xmlns="http://www.w3.org/2000/svg" viewBox="0 0 32 32"><defs><filter id="a" width="1.201" height="1.184" x="-.1" y="-.09" color-interpolation-filters="sRGB"><feGaussianBlur stdDeviation=".92"/></filter></defs><path d="M13.9941 5.5c-.9992 0-2 .9323-2 2.7969v11.3886C5.7494 13.4702 5 18.3945 5 18.3945c2.3906 1.6065 4.383 4.904 6.3203 7.5C12.751 28.065 15.206 29.5 18 29.5c3.9238 0 7.1818-2.8277 7.8633-6.5547l.0195-.0176 1.1016-6.1093c.262-2.5197-2.6954-3.1668-3.5664-.8418.0112-2.794-2.7571-3.1643-3.627-1.2637.109-2.3084-2.89-3.0018-3.7988-1.043V8.297c0-1.8646-.9988-2.7969-1.998-2.7969z" opacity=".3" filter="url(#a)"/><path d="M13.9941 4c-.9992 0-2 .9323-2 2.7969v11.3886C5.7494 11.9702 5 16.8945 5 16.8945c2.3906 1.6065 4.383 4.904 6.3203 7.5C12.751 26.565 15.206 28 18 28c3.9238 0 7.1818-2.8277 7.8633-6.5547l.0195-.0176 1.1016-6.1093c.262-2.5197-2.6954-3.1668-3.5664-.8418.0112-2.794-2.7571-3.1643-3.627-1.2637.109-2.3084-2.89-3.0018-3.7988-1.043V6.797c0-1.8646-.9988-2.7969-1.998-2.7969z" fill="#FF5555"/></svg>
